X:1
T:Title
%%score { ( 1 3 ) | ( 2 4 ) }
L:1/8
M:3/4
K:C
V:1 treble nm="Grand Piano"
V:3 treble 
V:2 bass 
V:4 bass 
V:1
 z2 z2[Q:1/4=90] [CE][DF] | [EA][EG] [EG]2 [EA][EB] | [Ed][Ec] [Ec]2 [Ec][Ec] | c3 A cA | %4
[M:2/4] [EG]4 |[M:1/4] [EG][FA] |[M:3/4] G^F =F2 AB | [EA][E^G] [E=G]2 [Ec][Ec] | %8
 [DB]3 [DB] [^Fc][FA] |[M:2/4] d4 |[M:3/8] e d2 |[M:3/4] [Ec]4 z2 | z D DB Bd | A4 z2 | %14
[M:2/4] [EG]4 |[M:1/4] E[DF] |[M:3/4] [EG][EG] [Ge]2 [Gc][Gc] |[M:15/16] dc/-c/A-A->AB-B/A | %18
[M:3/4] GA [^Fc]2 [=Fd]2 |[M:2/4] [Ec]4 |] %20
V:2
 z2 z2 [C,G,][C,G,] | [C,C][C,C] [C,C]2 [C,C][C,C] | [C,G,][C,G,] [C,G,]2 [C,G,][C,^G,] | %3
 [F,A,F]3 [F,CF] [F,A,F][F,CF] |[M:2/4] [C,C]4 |[M:1/4] [C,C][C,C] | %6
[M:3/4][K:treble] [G,B,E][G,B,_E] [G,B,D]2 [G,B,F][G,DF] | [C,C][C,C] [C,C]2 [C,G,][C,G,] | %8
 [D,G,]3 [D,G,] [D,A,][D,C] |[M:2/4][K:treble] [G,B,F]4 |[M:3/8] G F2 | %11
[M:3/4][K:bass] [C,G,]C, C,[C,G,] [C,G,][C,C] | [G,D]G, G,[K:treble]F F[G,B,F] | F4 z2 | %14
[M:2/4][K:bass] [C,C]C, C,2 |[M:1/4] [C,G,C][C,G,] |[M:3/4] [C,C][C,C] [C,C]2 [E,_B,][E,B,] | %17
[M:15/16] [F,A,F][F,A,F]/-[F,A,F]/[F,CF]-[F,CF]->[F,CF][^F,C_E]-[F,CE]/[F,CE] | %18
[M:3/4] [G,CE][G,CE] [D,A,]2 [G,B,]2 |[M:2/4] [C,C]4 |] %20
V:3
 x6 | x6 | x6 | x6 |[M:2/4] x4 |[M:1/4] x2 |[M:3/4] x6 | x6 | x6 |[M:2/4] x4 |[M:3/8] x3 | %11
[M:3/4] z G, G,[EB] [Ec][EA] | [FB]4 z2 | z B, B,A BA |[M:2/4] z C C2 |[M:1/4] x2 |[M:3/4] x6 | %17
[M:15/16] x15/2 |[M:3/4] x6 |[M:2/4] x4 |] %20
V:4
 x6 | x6 | x6 | x6 |[M:2/4] x4 |[M:1/4] x2 |[M:3/4][K:treble] x6 | x6 | x6 |[M:2/4][K:treble] x4 | %10
[M:3/8] x3 |[M:3/4][K:bass] x6 | x3[K:treble] x3 | [G,B,]G, G,[G,B,F] [G,DF][G,B,F] | %14
[M:2/4][K:bass] x4 |[M:1/4] x2 |[M:3/4] x6 |[M:15/16] x15/2 |[M:3/4] x6 |[M:2/4] x4 |] %20

